X:1
T:Title
%%score { ( 1 3 ) | ( 2 4 ) }
L:1/8
Q:1/4=100
M:4/4
K:C
V:1 treble nm="Grand Piano"
V:3 treble 
V:2 bass 
V:4 bass 
V:1
 [EG]3 [FA] [EG][CE][CF][FA] | [EG]4 [Ec]2 z2 | [EG]3 E [FA][EG][EG]E | D6 z2 | %4
w: William~J.~Kirkpatrick * * * * *||||
 [EG]3 [FA] [EG][CE][CF][FA] | [EG]4 [Ec]2 z2 | B3 c BGA^F | [B,DG]6 DE | z F3- F z z2 | %9
w: |||||
 z G3- G z z2 | [CFA][CFA][CFA][CFA] [CFA][CAc][CGB][CFA] | [CEG]6 Bc | z d3- d z z2 | %13
w: ||||
 z c3- c z z2 | AAAA GGAB | [Ec]6 z2 |] %16
w: |||
V:2
 [C,C]3 [C,C] [C,C][C,G,][C,A,][C,C] | [C,C]4 [C,G,]2 z2 | [C,C]3 [C,C] [C,C][C,C][C,C][E,G,C] | %3
 [G,B,]6 z2 | [C,C]3 [C,C] [C,C][C,G,][C,A,][C,C] | [C,C]4 [C,G,]2 z2 | %6
 [D,G,D]3 [D,A,D] [D,G,D][D,B,D][D,CD][D,CD] | G,,6 B,C | z D3- D z z2 | z E3- E z z2 | %10
 F,F,F,F, F,F,F,F, | C,6[K:treble] EE | z F3- F z z2 | z[K:bass] E3- E z z2 | %14
 [F,CF][F,CF][F,CF][F,CF] [G,CE][G,CE][G,B,F][G,F] | [C,G,]6 z2 |] %16
V:3
 x8 | x8 | x8 | x8 | x8 | x8 | x8 | x8 | .F2 G,G, G,G,ED | .E2 G,G, CC[CEG][CEG] | x8 | x8 | %12
 .d2 B,B, B,B,cB | .c2 G,G, G,G,[EG][EG] | x8 | x8 |] %16
V:4
 x8 | x8 | x8 | x8 | x8 | x8 | x8 | x8 | .D2 G,,G,, G,,G,,CB, | .C2 C,C, C,C,C,C, | x8 | %11
 x6[K:treble] x2 | .F2 G,G, G,G,ED | .E2[K:bass] C,C, C,C,[C,C][C,C] | x8 | x8 |] %16

